X: 103
T:Missa Mon seul plaisir / Credo
N: Derived from Jos0902c-Missa_Mon_seul_plaisir-Credo.krn
C: Josquin des Prez
%%abc-version 2.0
%%abcx-abcm2ps-target-version 5.9.1 (29 Sep 2008)
%%abc-creator hum2abc beta
%%abcx-conversion-date 2019/02/12 16:15:43
%%abc-edited-by Jesse Rodin
%%abc-edited-by Reinier de Valk; Victoria Chang 2012/03/28
%%abcx-initial-encoding-date 2012/03/28/
%%humdrum-veritas 2675021587
%%humdrum-veritas-data 3858269366
%%linebreak <none>
%%barnumbers 0
L: 1/4
M: 2/1
Q: 1/2=120
%%staves {1 2}
V: 1 clef=treble-8
V: 2 clef=bass
K: C
[V:1] z8 | 
[V:2] G,8 | 
[V:1] z8 | 
[V:2] D,4D,4 | 
[V:1] z8 | 
[V:2] E,4C,4 | 
[V:1] z8 | 
[V:2] G,8 | 
[V:1] G4G4 | 
[V:2] C,4E,4 | 
[V:1] A4A4 | 
[V:2] D,4D,4 | 
[V:1] G4c4 | 
[V:2] E,4C,4 | 
[V:1] d8 | 
[V:2] G,,4G,,4 | 
[V:1] c8 | 
[V:2] C,4z2C,2 | 
[V:1] z2A2c2d2 | 
[V:2] D,2D,2F,2F,2 | 
[V:1] e2e2d2d2 | 
[V:2] C,2C,2G,,4 | 
[V:1] c4B2c2 | 
[V:2] C,3D,E,2C,2 | 
[V:1] A2d4c2 | 
[V:2] D,2F,2E,4 | 
[V:1] d6c2 | 
[V:2] D,8- | 
[V:1] B2AGA4 | 
[V:2] D,8 | 
[V:1] G8- | 
[V:2] G,,8- | 
[V:1] G8 | 
[V:2] G,,8 | 
[V:1] z2G2G2G2 | 
[V:2] C,4E,2E,2 | 
[V:1] A2A2A2A2 | 
[V:2] D,2D,2F,2F,2 | 
[V:1] B2B2B2B2 | 
[V:2] E,2E,2G,2G,2 | 
[V:1] c2c2c2c2 | 
[V:2] F,4A,2A,2 | 
[V:1] d4z2c2 | 
[V:2] G,4D,2F,2 | 
[V:1] B2G2A4 | 
[V:2] G,2E,2D,4 | 
[V:1] G8 | 
[V:2] G,,4z2C,2- | 
[V:1] z4G4 | 
[V:2] C,2C,2G,,4 | 
[V:1] E4C4 | 
[V:2] A,,4A,,4 | 
[V:1] F8 | 
[V:2] F,,8 | 
[V:1] F8 | 
[V:2] D,4D,2D,2 | 
[V:1] G8 | 
[V:2] G,,4C,4 | 
[V:1] F2F2G2G2 | 
[V:2] D,4E,4 | 
[V:1] A4d2d2 | 
[V:2] D,8 | 
[V:1] d2d4d2 | 
[V:2] z2D,2D,2D,2 | 
[V:1] d2d2B4 | 
[V:2] D,4E,4 | 
[V:1] z2e2e2e2 | 
[V:2] z2E,2E,2E,2 | 
[V:1] e2e2e4 | 
[V:2] A,,2A,,2E,2E,2 | 
[V:1] c2d2e4 | 
[V:2] F,2F,2E,2C,2 | 
[V:1] d2c2A4 | 
[V:2] D,2E,2F,4 | 
[V:1] B2c2A4 | 
[V:2] E,2C,2D,4 | 
[V:1] A4z4 | 
[V:2] A,,8- | 
[V:1] A4A2A2- | 
[V:2] A,,4z2A,,2- | 
[V:1] A2GFE2A2- | 
[V:2] A,,2A,,2A,,2A,,2 | 
[V:1] A2G2A4 | 
[V:2] B,,4A,,4- | 
[V:1] z2A2c2d2 | 
[V:2] A,,4A,2G,2 | 
[V:1] c2d2e2c2- | 
[V:2] A,2F,2E,2F,2 | 
[V:1] c2B2c4- | 
[V:2] D,4C,4 | 
[V:1] c4z2c2 | 
[V:2] z4C,4 | 
[V:1] c4c4 | 
[V:2] F,4A,4 | 
[V:1] d3cd4 | 
[V:2] G,6D,2 | 
[V:1] cBAGA4 | 
[V:2] F,2G,2D,4 | 
[V:1] G8 | 
[V:2] G,,4z4 | 
[V:1] z8 | 
[V:2] C,6B,,2 | 
[V:1] c6B2 | 
[V:2] A,,2A,,4G,,2 | 
[V:1] A2A2A2G2 | 
[V:2] A,,4E,,4 | 
[V:1] A4E4 | 
[V:2] z8 | 
[V:1] z8 | 
[V:2] z8 | 
[V:1] z8 | 
[V:2] A,,4C,4 | 
[V:1] E4F4 | 
[V:2] E,4D,2D,2 | 
[V:1] D4D4 | 
[V:2] B,,4B,,4 | 
[V:1] E4F2G2 | 
[V:2] A,,4z4 | 
[V:1] E2F4D2 | 
[V:2] z8 | 
[V:1] A3GFED2 | 
[V:2] A,,2A,,2D,3C, | 
[V:1] d3cBAG2 | 
[V:2] B,,A,,G,,2G,3F, | 
[V:1] F2G2A4 | 
[V:2] E,D,E,2D,4 | 
[V:1] !fermata!G8 ||  
[V:2] !fermata!G,,8 ||  
[V:1]  [K:C] [K:clef=treble-8][M:2/1]z8 | 
[V:2]  [K:C] [K:clef=bass][M:2/1]G,8 | 
[V:1] z8 | 
[V:2] D,4D,4 | 
[V:1] G8 | 
[V:2] E,4E,4 | 
[V:1] A4A4 | 
[V:2] D,8 | 
[V:1] G4c4 | 
[V:2] z8 | 
[V:1] d8 | 
[V:2] z8 | 
[V:1] c4z2c2 | 
[V:2] C,4C,2C,2 | 
[V:1] d2G2B3c | 
[V:2] G,4E,4 | 
[V:1] d4G4 | 
[V:2] D,4z2C,2 | 
[V:1] z2A2A2A2 | 
[V:2] F,2F,2F,2D,2 | 
[V:1] G2E2F4 | 
[V:2] E,2C,2z4 | 
[V:1] E2E2F2D2 | 
[V:2] z8 | 
[V:1] G2A2G4 | 
[V:2] z8 | 
[V:1] z8 | 
[V:2] C,4F,2E,2- | 
[V:1] E4F2G2- | 
[V:2] E,2C,2D,2E,2- | 
[V:1] G2FED2E2- | 
[V:2] E,2D,C,B,,2A,,2 | 
[V:1] E2F2D4 | 
[V:2] C,2D,2B,,4 | 
[V:1] E4z2c2 | 
[V:2] A,,4z2A,2 | 
[V:1] d2e2f2d2 | 
[V:2] G,2G,2F,2F,2 | 
[V:1] e2f2e4 | 
[V:2] E,2D,2E,2E,2 | 
[V:1] z2A2G2F2 | 
[V:2] A,,2D,2E,2F,2- | 
[V:1] FGABc4 | 
[V:2] F,2E,D,C,3D, | 
[V:1] B4A4 | 
[V:2] E,F,G,E,F,4 | 
[V:1] B4z2A2 | 
[V:2] E,4A,,4 | 
[V:1] G2A2F2E2 | 
[V:2] z2A,,2D,2C,2 | 
[V:1] A4G2c2- | 
[V:2] A,,B,,C,D,E,2C,D, | 
[V:1] c2B4AG | 
[V:2] E,F,G,4F,E, | 
[V:1] F3EG4 | 
[V:2] D,4C,4 | 
[V:1] z2D2G2A2 | 
[V:2] z8 | 
[V:1] B2c2d4 | 
[V:2] z8 | 
[V:1] c2B2A4 | 
[V:2] z4D,4 | 
[V:1] G4z4 | 
[V:2] E,2E,2F,2F,2 | 
[V:1] z8 | 
[V:2] G,4G,2F,2 | 
[V:1] z8 | 
[V:2] E,2D,C,D,4 | 
[V:1] z4c4 | 
[V:2] C,4z4 | 
[V:1] c4c4 | 
[V:2] C,6B,,A,, | 
[V:1] d6c2- | 
[V:2] G,,2G,2G,2A,2- | 
[V:1] c2BAc2d2 | 
[V:2] A,2G,F,E,2D,2 | 
[V:1] B4A4 | 
[V:2] E,4A,,4 | 
[V:1] z4z2A2 | 
[V:2] z4z2A,2 | 
[V:1] c3cB2B2 | 
[V:2] A,3A,E,2G,2 | 
[V:1] z2A2B2B2 | 
[V:2] F,2F,2E,4 | 
[V:1] c2A2B2c2 | 
[V:2] z2A,2G,2E,2 | 
[V:1] A4B2c2 | 
[V:2] F,2F,2E,2C,2 | 
[V:1] B2G4A2- | 
[V:2] G,3F,E,2D,2 | 
[V:1] AGG4F2 | 
[V:2] E,2C,2D,4 | 
[V:1] [M:3/1]G4z4G4 | 
[V:2] [M:3/1]C,4z4C,4 | 
[V:1] c8c4 | 
[V:2] A,,8A,,4 | 
[V:1] d4d4B4 | 
[V:2] G,,4D,4E,4 | 
[V:1] c4A4G4 | 
[V:2] C,4D,4E,4 | 
[V:1] c8B4 | 
[V:2] A,,4D,4D,4 | 
[V:1] c4A8 | 
[V:2] C,4D,4D,4 | 
[V:1] G8F4 | 
[V:2] G,,4z4D,4 | 
[V:1] G4E4F4 | 
[V:2] C,4E,4D,4 | 
[V:1] G4z2G2E2F2 | 
[V:2] C,4C,2B,,2A,,4 | 
[V:1] G4G4A4 | 
[V:2] G,,4G,4F,4 | 
[V:1] G2G2B4A4 | 
[V:2] G,4E,4F,4 | 
[V:1] B4G2G2A4 | 
[V:2] D,4E,4C,4 | 
[V:1] G4A8 | 
[V:2] E,4D,8 | 
[V:1] [M:2/1]G8 | 
[V:2] [M:2/1]G,,4z2G,,2 | 
[V:1] z8 | 
[V:2] C,2C,2B,,2B,,2 | 
[V:1] z8 | 
[V:2] A,,2A,,2G,,2G,2- | 
[V:1] z4z2G2 | 
[V:2] G,2F,2G,2E,2 | 
[V:1] A2F2G2G2 | 
[V:2] F,2D,2E,4 | 
[V:1] A2F2G4 | 
[V:2] D,2F,2E,4 | 
[V:1] A4G4 | 
[V:2] D,4B,,2C,2- | 
[V:1] z8 | 
[V:2] C,2B,,A,,G,,4 | 
[V:1] z8 | 
[V:2] z2G,2G,2G,2 | 
[V:1] z8 | 
[V:2] E,2F,2D,2F,E, | 
[V:1] z8 | 
[V:2] D,C,E,2D,4 | 
[V:1] z2G2c4 | 
[V:2] C,4z4 | 
[V:1] A2A2d3c | 
[V:2] z8 | 
[V:1] BAG4c2 | 
[V:2] z8 | 
[V:1] B2A2d4 | 
[V:2] z8 | 
[V:1] c2B2A4 | 
[V:2] z4D,4 | 
[V:1] G4z4 | 
[V:2] E,2E,2F,2F,2 | 
[V:1] z8 | 
[V:2] G,2F,E,D,2F,2 | 
[V:1] z8 | 
[V:2] E,2C,2G,F,E,D, | 
[V:1] z8 | 
[V:2] C,2E,2D,C,B,,A,, | 
[V:1] z8 | 
[V:2] G,,2G,3F,E,2- | 
[V:1] z8 | 
[V:2] E,2D,C,D,4 | 
[V:1] G8 | 
[V:2] C,4z4 | 
[V:1] G4G4 | 
[V:2] C,8 | 
[V:1] E4F4 | 
[V:2] C,4A,,4 | 
[V:1] D2G4E2- | 
[V:2] G,,4z2C,2 | 
[V:1] EDG4^F2 | 
[V:2] C,B,,A,,G,,A,,2A,,2 | 
[V:1] G8 | 
[V:2] G,,4z2G,,2 | 
[V:1] z8 | 
[V:2] G,,2G,,2G,2G,2 | 
[V:1] z8 | 
[V:2] C,3D,E,2F,2 | 
[V:1] z8 | 
[V:2] G,4z2G,2 | 
[V:1] z8 | 
[V:2] F,4E,4 | 
[V:1] DEFGAGB2- | 
[V:2] D,4z2D,2 | 
[V:1] B2A4G2 | 
[V:2] C,4B,,4 | 
[V:1] A4z2G2 | 
[V:2] A,,4E,4 | 
[V:1] A2A2B2c2 | 
[V:2] F,4E,2C,2 | 
[V:1] A4G3F | 
[V:2] D,4G,,4 | 
[V:1] E2D2E4 | 
[V:2] A,,2B,,2A,,4 | 
[V:1] z4D4 | 
[V:2] D,4G,,4 | 
[V:1] G2G2G2A2 | 
[V:2] z2G,,2G,,2G,,2 | 
[V:1] B6AB | 
[V:2] G,2F,E,D,4 | 
[V:1] c6BA | 
[V:2] C,4z4 | 
[V:1] G2D2F2G2 | 
[V:2] z2G,,2_B,,2B,,2 | 
[V:1] z2A2B2c2 | 
[V:2] A,,2A,,2G,,G,F,2 | 
[V:1] d2G2A4 | 
[V:2] D,2E,2D,4 | 
[V:1] !fermata!G8 |]  
[V:2] !fermata!G,,8 |]  



